X: 39069
T: Swedish Rhapsody, The
R: polka
M: 2/4
K: Gmajor
G2 Bd|gb af|g2 f2|c4|{d}e2d2|F4|{d}e2d2|G4|
G2 Bd|gb af|g2 f2|c3 d|e2 (3ded|c2 F2|1 G4|G4:|2 G4-|G2 Bd||
|:g2 g2|g2 g2|~f4-|f2 Ac|e2 e2|e2 e2|d4-|d4|
D2 FA|e2 d2|F2 A2|F2 A2|D2 FA|e2d2|1 G2B2|G2 Bd:|2 G4|G4||

